packages/foundations/assets/icons/functional/images/communication/chat_12_filled.svg

<svg width="12" height="12" viewBox="0 0 12 12" fill="none" xmlns="http://www.w3.org/2000/svg">
<g clip-path="url(#clip0_2204_2164)">
<path fill-rule="evenodd" clip-rule="evenodd" d="M9.31303 1.21997C10.1443 1.21997 10.8116 1.87607 10.7999 2.71961L10.753 7.49969C10.7413 8.31977 10.0974 8.99933 9.27796 8.99933H3.96287C3.88091 8.99933 3.8107 9.01103 3.75219 9.06959L2.21853 10.6161C2.10144 10.745 1.94927 10.7801 1.8088 10.7801C1.48096 10.7801 1.20001 10.5575 1.20001 10.1827L1.24684 2.69615C1.24684 1.87607 1.91414 1.21997 2.74536 1.21997H9.31303ZM9.00001 5.41997H3.00001V6.61997H9.00001V5.41997ZM9.00001 3.01997H3.00001V4.21997H9.00001V3.01997Z" fill="#1A1C1F"/>
</g>
<defs>
<clipPath id="clip0_2204_2164">
<rect width="12" height="12" fill="white"/>
</clipPath>
</defs>
</svg>

<svg xmlns="http://www.w3.org/2000/svg" width="12" height="12" fill="none"><g clip-path="url(#a)"><path fill="#1A1C1F" fill-rule="evenodd" d="M9.313 1.22a1.47 1.47 0 0 1 1.487 1.5l-.047 4.78c-.012.82-.656 1.5-1.475 1.5H3.963c-.082 0-.152.011-.21.07l-1.534 1.546a.53.53 0 0 1-.41.164c-.328 0-.609-.223-.609-.597l.047-7.487c0-.82.667-1.476 1.498-1.476zM9 5.42H3v1.2h6zm0-2.4H3v1.2h6z" clip-rule="evenodd"/></g><defs><clipPath id="a"><path fill="#fff" d="M0 0h12v12H0z"/></clipPath></defs></svg>
